usr/share/icons/biglinux-icons-material/16/actions/category.svg

<svg xmlns="http://www.w3.org/2000/svg" viewBox="0 0 16 16"><path d="M7 2v2.133A4 4 0 0 0 4.13 7H2v2h2.133A4 4 0 0 0 8 12a4 4 0 0 0 3.87-3H14V7h-2.133A4 4 0 0 0 9 4.13V2H7zm1 3a3 3 0 0 1 3 3 3 3 0 0 1-3 3 3 3 0 0 1-3-3 3 3 0 0 1 3-3z" style="fill:currentColor;fill-opacity:1;stroke:none;color:#dedede"/></svg>

<svg xmlns="http://www.w3.org/2000/svg" viewBox="0 0 16 16">
  <defs id="defs3051">
    <style type="text/css" id="current-color-scheme">
      .ColorScheme-Text {
        color:#363636;
      }
      </style>
  </defs>
 <path style="fill:currentColor;fill-opacity:1;stroke:none" 
     d="M 7 2 L 7 4.1328125 A 4 4 0 0 0 4.1308594 7 L 2 7 L 2 9 L 4.1328125 9 A 4 4 0 0 0 8 12 A 4 4 0 0 0 11.869141 9 L 14 9 L 14 7 L 11.867188 7 A 4 4 0 0 0 9 4.1308594 L 9 2 L 7 2 z M 8 5 A 3 3 0 0 1 11 8 A 3 3 0 0 1 8 11 A 3 3 0 0 1 5 8 A 3 3 0 0 1 8 5 z "
     class="ColorScheme-Text"
     />
</svg>
